!!!COM: Corelli, Arcangelo
!!!OPR: Sonata da camera
!!!OPS: 4
!!!ONM: 3
!!!OMV: 2
!!!OTL: Corrente
!!!OMD: Allegro
**kern	**fb	**kern	**kern
*part3	*part3	*part2	*part1
*staff3	*	*staff2	*staff1
*I"Violone & Cembalo	*	*I"Violino II	*I"Violino I
*clefF4	*	*clefG2	*clefG2
*k[f#c#]	*	*k[f#c#]	*k[f#c#]
*A:	*	*A:	*A:
*M3/4	*	*M3/4	*M3/4
*MM176	*	*MM176	*MM176
=	=	=	=
8AA	.	8cc#	8ee
=1	=1	=1	=1
2AA	.	2cc#	4.ee
.	.	.	8a
4A	.	4a	8cc#L
.	.	.	8aJ
=2	=2	=2	=2
4G#X	6	4ee	8bL
.	.	.	8aJ
4E	.	4g#X	8bL
.	.	.	8cc#J
4G#	6	4b	8ddL
.	.	.	8bJ
=3	=3	=3	=3
4A	.	2e	8cc#L
.	.	.	8aJ
4AA	.	.	8cc#L
.	.	.	8bJ
4A	.	4cc#	8cc#L
.	.	.	8dd#XJ
=4	=4	=4	=4
2G#X	6	2b	8eeL
.	.	.	8bJ
.	.	.	8eeL
.	.	.	8ff#J
4G#	.	[4ee	8gg#XL
.	.	.	8eeJ
=5	=5	=5	=5
*E:	*	*E:	*E:
4F#	7	4ee]	8aaL
.	.	.	8gg#XJ
4B	7 #	2dd#X	8ff#L
.	.	.	8gg#J
4BB	.	.	8aaL
.	.	.	8ff#J
=6	=6	=6	=6
4E	.	2ee	8gg#XL
.	.	.	8bJ
[2e	6	.	8cc#L
.	.	.	8ddJ
.	.	4g#X	8eeL
.	.	.	8eJ
=7	=7	=7	=7
4e]	4 2	4a	8f#L
.	.	.	8aJ
[2d	6	4f#	8bL
.	.	.	8cc#J
.	.	4b	8ddL
.	.	.	8f#J
=8	=8	=8	=8
*A:	*	*A:	*A:
4d]	#4| 2	2e	8g#XL
.	.	.	8eeJ
4c#	6	.	8ff#L
.	.	.	8gg#XJ
4C#	6	4ee	8aaL
.	.	.	8eeJ
=9	=9	=9	=9
4D	.	2a	8ff#L
.	.	.	8aJ
4F#	6	.	8ddL
.	.	.	8ff#J
4D	6	4ff#	8bbL
.	.	.	8ff#J
=10	=10	=10	=10
4E	#	2b	8gg#XL
.	.	.	8eeJ
4D	6	.	8ff#L
.	.	.	8gg#J
4C#	6	4ee	8aaL
.	.	.	8cc#J
=11	=11	=11	=11
4D	.	4a	8ff#L
.	.	.	8bJ
4E	5 4	4.a	2b
4EE	#	.	.
.	.	8g#X	.
=12	=12	=12	=12
2AA	.	2a	8aL
.	.	.	8eJ
.	.	.	8aL
.	.	.	8cc#J
4A	.	4cc#	8eeL
.	.	.	8cc#J
=13	=13	=13	=13
4G#X	6	4ee	8bL
.	.	.	8eJ
4E	#	4b	8g#XL
.	.	.	8bJ
4G#	6	4g#X	8eeL
.	.	.	8bJ
=14	=14	=14	=14
4A	.	2e	8cc#L
.	.	.	8aJ
4AA	.	.	8cc#L
.	.	.	8eeJ
4A	.	4cc#	8aaL
.	.	.	8cc#J
=15	=15	=15	=15
*E:	*	*E:	*E:
4B	#	4f#	8dd#XL
.	.	.	8bJ
4BB	.	4ff#	8dd#L
.	.	.	8ff#J
4B	#	4dd#X	8bbL
.	.	.	8ff#J
=16	=16	=16	=16
2E	#	2.ee	8gg#XL
.	.	.	8eeJ
.	.	.	8gg#L
.	.	.	8bbJ
4E	.	.	8gg#L
.	.	.	8bbJ
=17	=17	=17	=17
4D#X	6	4r	8ff#L
.	.	.	8bbJ
4D#	.	4b	8ff#L
.	.	.	8bbJ
4G#X	7	4b	8ff#L
.	.	.	8bbJ
=18	=18	=18	=18
2C#	7	4b	8eeL
.	.	.	8aaJ
.	6	2a	8eeL
.	.	.	8aaJ
4F#	7	.	8eeL
.	.	.	8aaJ
=19	=19	=19	=19
4BB	#6\ #	4r	8dd#XL
.	.	.	8gg#XJ
4BB	.	4g#X	8dd#L
.	.	.	8gg#J
4E	#7	4g#	8dd#L
.	.	.	8gg#J
=20	=20	=20	=20
2AA	7	4g#X	8cc#L
.	.	.	8ff#J
.	6	4f#	8cc#L
.	.	.	8ff#J
4AA	6	4ff#	8cc#L
.	.	.	8ff#J
=21	=21	=21	=21
2AA	#4| 2	2b	8dd#XL
.	.	.	8bJ
.	.	.	8cc#L
.	.	.	8dd#J
4GG#X	6	4b	4ee
=22	=22	=22	=22
4AA	.	4e	4cc#
2BB	4 5	4.e	4.f#
.	#	8d#X	8b
=23	=23	=23	=23
2EE	#	2e	2g#X
8r	.	8r	8r
8E	#	8g#X	8b
==24	==24	==24	==24
2E	#	2g#X	4.b
.	.	.	8cc#
4E	.	4g#	8bL
.	.	.	8cc#J
=25	=25	=25	=25
*A:	*	*A:	*A:
4F#	6	4a	8ddL
.	.	.	8cc#J
4F#	.	4a	8ddL
.	.	.	8eeJ
4G#X	6 5	4b	8bL
.	.	.	8ddJ
=26	=26	=26	=26
4A	.	2e	8cc#L
.	.	.	8aJ
4AA	.	.	8cc#L
.	.	.	8eeJ
4A	.	4cc#	8aaL
.	.	.	8bbJ
=27	=27	=27	=27
4B	#6\	2dd	8gg#XL
.	.	.	8ff#J
4BB	.	.	8gg#L
.	.	.	8aaJ
4B	.	4dd	8ff#L
.	.	.	8gg#J
=28	=28	=28	=28
*f#:	*	*f#:	*f#:
4c#	#	4g#X	8ee#XL
.	.	.	8cc#J
4A	6	4cc#	8ff#L
.	.	.	8gg#XJ
4F#	.	[4ff#	8aaL
.	.	.	8gg#J
=29	=29	=29	=29
4BB	7 5	4ff#]	8aaL
.	.	.	8bbJ
4.C#	#5 4	4.ff#	2gg#X
8CC#	#	8ee#X	.
=30	=30	=30	=30
2FF#	.	2.ff#	8ff#L
.	.	.	8f#J
.	.	.	8aL
.	.	.	8cc#J
4r	.	.	8ff#L
.	.	.	8cc#J
=31	=31	=31	=31
*B:	*	*B:	*B:
4F#	#	2cc#	8a#XL
.	.	.	8f#J
4FF#	.	.	8a#L
.	.	.	8cc#J
4AA#X	6	4cc#	8ff#L
.	.	.	8cc#J
=32	=32	=32	=32
2BB	#	2.f#	8dd#XL
.	.	.	8bJ
.	.	.	8dd#L
.	.	.	8ff#J
4r	.	.	8bbL
.	.	.	8ff#J
=33	=33	=33	=33
*E:	*	*E:	*E:
4B	#	2ff#	8dd#XL
.	.	.	8bJ
4BB	.	.	8dd#L
.	.	.	8ff#J
4D#X	6	4ff#	8bbL
.	.	.	8ff#J
=34	=34	=34	=34
2E	#	2.b	8gg#XL
.	.	.	8eJ
.	.	.	8g#XL
.	.	.	8bJ
4r	.	.	8eeL
.	.	.	8bJ
=35	=35	=35	=35
*A:	*	*A:	*A:
4e	#	2b	8g#XL
.	.	.	8eJ
4E	.	.	8g#L
.	.	.	8bJ
4G#X	6	4b	8eeL
.	.	.	8bJ
=36	=36	=36	=36
2A	.	2.e	8cc#L
.	.	.	8aJ
.	.	.	8cc#L
.	.	.	8eeJ
4r	.	.	8aaL
.	.	.	8eeJ
=37	=37	=37	=37
*D:	*	*D:	*D:
4A	.	2ee	8cc#L
.	.	.	8aJ
4AA	.	.	8cc#L
.	.	.	8eeJ
4C#	6	4ee	8aaL
.	.	.	8eeJ
=38	=38	=38	=38
2D	.	2a	8ff#L
.	.	.	8dJ
.	.	.	8f#L
.	.	.	8aJ
4r	.	4ff#	8ddL
.	.	.	8f#J
=39	=39	=39	=39
*A:	*	*A:	*A:
4E	5 #	4b	8g#XL
.	.	.	8eJ
4EE	6	4ee	8g#L
.	.	.	8cc#J
4r	.	4gg#X	8bL
.	.	.	8cc#J
=40	=40	=40	=40
4F#	5	4cc#	8aL
.	.	.	8f#J
4FF#	6	4ff#	8aL
.	.	.	8ddJ
4r	.	4aa	8cc#L
.	.	.	8ddJ
=41	=41	=41	=41
4G#X	5	4r	8bL
.	.	.	8g#XJ
4GG#X	6	4gg#X	8bL
.	.	.	8eeJ
4r	.	4bb	8ddL
.	.	.	8eeJ
=42	=42	=42	=42
4A	5	4ee	8cc#L
.	.	.	8aJ
4AA	6	4a	8cc#L
.	.	.	8ff#J
4r	.	4cc#	8eeL
.	.	.	8ff#J
=43	=43	=43	=43
4B	5	4f#	8ddL
.	.	.	8bJ
4BB	#6\	4b	8ddL
.	.	.	8gg#XJ
4r	.	4dd	8ff#L
.	.	.	8gg#J
=44	=44	=44	=44
4c#	5	4r	8eeL
.	.	.	8cc#J
4C#	.	4cc#	8eeL
.	.	.	8aaJ
4r	.	4ee	8gg#XL
.	.	.	8aaJ
=45	=45	=45	=45
4d	5	4a	8ff#L
.	.	.	8ddJ
[2D	6	4dd	8ff#L
.	.	.	8bbJ
.	.	4ff#	8aaL
.	.	.	8bbJ
=46	=46	=46	=46
2D]	#4 2	2b	8gg#XL
.	.	.	8eeJ
.	.	.	8ff#L
.	.	.	8gg#J
4C#	6	4ee	8aaL
.	.	.	8cc#J
=47	=47	=47	=47
4D	.	4a	8ff#L
.	.	.	8bJ
4E	5 4	4.a	2b
4EE	#	.	.
.	.	8g#X	.
=48	=48	=48	=48
2AA	.	2a	2a
8r	.	8r	8r
=:|!	=:|!	=:|!	=:|!
*-	*-	*-	*-
!!!system-decoration: [{s1,s2},s3]
!!!YEM: CC BY-NC-SA 4.0; CCARH; DCML